X: 1002
T: The New Canaries.
%R: jig
B: Henry Playford "Apollo's Banquet", London 1687 (5th Edition)
F: https://archive.org/details/apollosbanquetco01rugg
Z: 2017 John Chambers <jc:trillian.mit.edu>
M: 6/4
L: 1/8
K: D
% - - - - - - - - - -
|:\
d3ef2 f3ed2 | a3ba2 g4f2 |\
a3ef2 g3af3 | d3cde e6 ::\
e3fe2 f3ga2 | d3edc B4A2 |\
d3cB2 g3ab3 | e3dc2 d6 |]
% - - - - - - - - - -

%%sep 1 1 500
%%sep 1 1 500

